assets/images/document-merge.svg

<svg xmlns="http://www.w3.org/2000/svg" width="20" height="20" viewBox="0 0 20 20" style="enable-background:new 0 0 20 20"><path d="M16.064 13.206C16.392 12.9101 16.8979 12.936 17.1939 13.2641L19.6625 16L17.1939 18.7359C16.8979 19.064 16.392 19.0899 16.064 18.794C15.7359 18.498 15.71 17.9921 16.0059 17.6641L16.7856 16.8H13.1999C12.7581 16.8 12.3999 16.4418 12.3999 16C12.3999 15.5582 12.7581 15.2 13.1999 15.2H16.7856L16.0059 14.3359C15.71 14.0079 15.7359 13.502 16.064 13.206Z"/><path d="M2.99805 18.9355V1.06466C2.99805 0.695317 3.45586 0.523299 3.69908 0.80126L4.44702 1.65605C4.60638 1.83818 4.88971 1.83818 5.04908 1.65605L6.19702 0.344118C6.35638 0.161987 6.63971 0.161987 6.79908 0.344117L7.94702 1.65605C8.10638 1.83818 8.38971 1.83818 8.54908 1.65605L9.69702 0.344118C9.85638 0.161987 10.1397 0.161987 10.2991 0.344117L11.447 1.65605C11.6064 1.83818 11.8897 1.83818 12.0491 1.65605L13.197 0.344118C13.3564 0.161987 13.6397 0.161987 13.7991 0.344117L14.947 1.65605C15.1064 1.83818 15.3897 1.83818 15.5491 1.65605L16.297 0.801261C16.5402 0.5233 16.998 0.695317 16.998 1.06466V11.0284C16.2037 10.9147 15.3665 11.1416 14.7242 11.7212C14.2731 12.1282 13.9852 12.6485 13.8647 13.2H13.1999C11.6535 13.2 10.3999 14.4536 10.3999 16C10.3999 16.9286 10.8519 17.7516 11.5479 18.261C11.511 18.2823 11.4768 18.31 11.447 18.3441L10.2991 19.656C10.1397 19.8382 9.85638 19.8382 9.69702 19.656L8.54908 18.3441C8.38971 18.162 8.10638 18.162 7.94702 18.3441L6.79908 19.656C6.63971 19.8382 6.35638 19.8382 6.19702 19.656L5.04908 18.3441C4.88971 18.162 4.60638 18.162 4.44702 18.3441L3.69908 19.1989C3.45586 19.4769 2.99805 19.3048 2.99805 18.9355Z"/></svg>

<svg xmlns="http://www.w3.org/2000/svg" width="20" height="20" viewBox="0 0 20 20"><path d="M16.064 13.206a.8.8 0 0 1 1.13.058L19.663 16l-2.47 2.736a.8.8 0 0 1-1.187-1.072l.78-.864H13.2a.8.8 0 0 1 0-1.6h3.586l-.78-.864a.8.8 0 0 1 .058-1.13"/><path d="M2.998 18.936V1.065A.4.4 0 0 1 3.699.8l.748.855a.4.4 0 0 0 .602 0L6.197.344a.4.4 0 0 1 .602 0l1.148 1.312a.4.4 0 0 0 .602 0L9.697.344a.4.4 0 0 1 .602 0l1.148 1.312a.4.4 0 0 0 .602 0L13.197.344a.4.4 0 0 1 .602 0l1.148 1.312a.4.4 0 0 0 .602 0l.748-.855a.4.4 0 0 1 .701.264v9.963a2.8 2.8 0 0 0-2.274.693 2.8 2.8 0 0 0-.86 1.479H13.2a2.8 2.8 0 0 0-1.652 5.061.4.4 0 0 0-.101.083l-1.148 1.312a.4.4 0 0 1-.602 0l-1.148-1.312a.4.4 0 0 0-.602 0l-1.148 1.312a.4.4 0 0 1-.602 0l-1.148-1.312a.4.4 0 0 0-.602 0l-.748.855a.4.4 0 0 1-.7-.264"/></svg>
